X:711
T:Newport
S:Bruce & Emmett's Drummers and Fifers Guide (1862), p. 71
M:2/4
L:1/16
Q:1/4=100
K:D
%%MIDI program 72
%%MIDI transpose 8
%%MIDI ratio 3 1
(3(ABc)|d2A2 f3e|d2A2 f3e|dFAd f2df|edcB ABce|d2A2 f3e|d2A2 f3e|
dcBA (3^GAB cd|(e4 "^fine"d2):|AF|D2dB A2fe|d2af d2ef|gagf efed|cedB A2AF|
D2dB A2fe|d2af d2ef|g2(gf) (fe)(ed)|(f4 e2) (ef)|gfge c2ag|fgfe d2ba|
gagf efed|cedB A2AG|FAd2 Adfa|gfge cABc|d2dc BA^GB|A4-"^D.C. al fine"A2||
